X:1
T:Septembre (S. Delicq)
R:Waltz
C:Trad 1, 81
M:3/4
L:1/8
% F:http://members.yline.com/~zeiler1/abc/czmaz.abc 2005-10-23 22:03:36 UT
K:C
Ac|e2e2 af|e4A2|B2 Bd cB|c2A2 Ac|\
e2 ea fa|e4 A2|B2 Bd cB|A4:|
A2|B2 Bd cB|c2 A2 e2|a4 gf|e4 A2|\
B2 Bd cB|c2 A2 e2|fe dc B2|A4:|
